projects/samara/images/icons/telegram.svg

<svg width="24" height="24" viewBox="0 0 24 24" fill="none" xmlns="http://www.w3.org/2000/svg">
<path fill="currentColor" d="M11.7253 21.5333C6.32867 21.5333 1.9541 17.1587 1.9541 11.7621C1.9541 6.36542 6.32867 1.99084 11.7253 1.99084C17.1219 1.99084 21.4965 6.36542 21.4965 11.7621C21.4965 17.1587 17.1219 21.5333 11.7253 21.5333ZM8.68646 12.9053L8.69917 12.8984L9.54926 15.7028C9.6587 16.0067 9.80918 16.0614 9.9919 16.036C10.1756 16.0116 10.2723 15.9129 10.3925 15.7976L11.5533 14.6758L14.045 16.5206C14.5003 16.7718 14.8277 16.6418 14.941 16.0985L16.5601 8.45548C16.7389 7.74413 16.4262 7.45881 15.8742 7.68551L6.36385 11.3595C5.71504 11.6194 5.71895 11.9829 6.24659 12.1441L8.68646 12.9063V12.9053Z" />
</svg>

<svg width="24" height="24" fill="none" xmlns="http://www.w3.org/2000/svg"><path fill="currentColor" d="M11.725 21.533c-5.396 0-9.77-4.374-9.77-9.77 0-5.398 4.374-9.772 9.77-9.772 5.397 0 9.772 4.374 9.772 9.771 0 5.397-4.375 9.771-9.772 9.771zm-3.039-8.628l.013-.007.85 2.805c.11.304.26.358.443.333.184-.024.28-.123.4-.238l1.161-1.122 2.492 1.845c.455.25.783.12.896-.422l1.62-7.644c.178-.71-.135-.996-.687-.77l-9.51 3.675c-.649.26-.645.623-.117.784l2.44.762z"/></svg>
